cssgg/quote.svg

<svg
  width="24"
  height="24"
  viewBox="0 0 24 24"
  fill="none"
  xmlns="http://www.w3.org/2000/svg"
>
  <path d="M9.13456 9H12.1346L10 14.6075H7L9.13456 9Z" fill="currentColor" />
  <path d="M14.1346 9H17.1346L15 14.6075H12L14.1346 9Z" fill="currentColor" />
</svg>

<svg viewBox="0 0 24 24" xmlns="http://www.w3.org/2000/svg"><g><path d="M9.13 9h3l-2.14 5.6h-3l2.13-5.61Z"/><path d="M14.13 9h3l-2.14 5.6h-3l2.13-5.61Z"/></g></svg>
